X:1
T:The Earl o' Aboyne
M:4/4
L:1/8
K:F
 C2| F2 F3/2 G/2 F2 C2| F2 F3/2- G/2 F2 A2| G2A-B c2B-A| G2 C2 C2|\
 B2|A-G AB c2 CC|F-E DC B,2A,-B,| C2 F2 GFE-D| C2 F2 F2||
